X: 378
T: Jian shanyao diao
%%abc-version 2.0
%%abcx-abcm2ps-target-version 5.9.1 (29 Sep 2008)
%%abc-creator hum2abc beta
%%abcx-conversion-date 2013/10/02 07:52:30
%%abc-edited-by Helmut Schaffrath
%%humdrum-veritas 1412025527
%%humdrum-veritas-data 2412776215
%%continueall 1
%%barnumbers 0
L: 1/16
M: 2/4
K: Bb
d2 f2 d2 d c [I:setbarnb 1]| 
B2 f2 d2 d c | 
B2 F2 c2 c d | 
c2 c FB4 | 
B2 G F c2 c d | 
c2 c FB4 | 
G2 G B c2 c d | 
f2 G2F4 | 
A2z6 | 
G G G B c2 F2 | 
B2 B GF4 |]  



